TGeo/prim_box_z.svg

<svg viewBox="-600 -400 1200 800" width="1200" height="800" xmlns="http://www.w3.org/2000/svg"><path style="fill:rgb(93,0,0)" d="M-240,165l294,245l17,-459Z"/><path style="fill:rgb(96,0,0)" d="M71,-49l-17,459l196,-170Z"/><path style="fill:rgb(143,0,0)" d="M-302,-290l620,72l-373,-198Z"/><path style="fill:rgb(97,0,0)" d="M-240,165l311,-214l-373,-241Z"/><path style="fill:rgb(102,0,0)" d="M71,-49l179,289l68,-458Z"/><path style="fill:rgb(156,0,0)" d="M-302,-290l373,241l247,-169Z"/></svg>

<svg xmlns="http://www.w3.org/2000/svg" viewBox="-600 -400 1200 800" width="1200" height="800" style="background:rgb(255,255,255)"><path style="fill:rgb(93,0,0)" d="M-240,165L54,410L71,-49z"/><path style="fill:rgb(96,0,0)" d="M71,-49L54,410L250,240z"/><path style="fill:rgb(143,0,0)" d="M-302,-290L318,-218L-55,-416z"/><path style="fill:rgb(97,0,0)" d="M-240,165L71,-49L-302,-290z"/><path style="fill:rgb(102,0,0)" d="M71,-49L250,240L318,-218z"/><path style="fill:rgb(156,0,0)" d="M-302,-290L71,-49L318,-218z"/></svg>
